X:1
T:Jesus Knocks at Thy Heart
T:Jesus Knocks at Thy Heart
T:Anthony Johnson Showalter
T:Anthony Johnson Showalter, 1896
T:Public Domain Courtesy of the Cyber Hymnal™
T:Public Domain Courtesy of the Cyber Hymnal™
C:Anthony Johnson Showalter
Z:Public Domain
Z:Courtesy of the Cyber Hymnal™
%%score ( 1 2 ) ( 3 4 )
L:1/8
Q:1/4=93
M:6/8
K:E
V:1 treble 
V:2 treble 
V:3 bass 
V:4 bass 
V:1
 [EG][EG][EG] [EG][DF]E | [DB][EB][FB] [EB]3 | [EB][Ec][^EG] [FA]3 | [DA][DB][DF] [EG]3 | %4
w: 1.~Lo! Je- sus pa- tient- ly|knocks at the door,|Knocks at thy heart,|knocks at thy heart;|
w: 2.~O- pen the door and say,|“Mas- ter, come in,|Come and a- bide,|come and a- bide”;|
w: 3.~Je- sus stands wait- ing and|pleads with thee still;|O- pen to- day,|o- pen to- day;|
w: 4.~O- pen the door of thy|heart and find rest,|Find it to- day,|find it to- day;|
 [EG][EG][EG] [EG][DF]E | [DB][EB][FB] [EB]3 | [Ec][Ec][Ee] [Fd][Fd][Ec] | [DB]6 || %8
w: O- pen to- day and re-|sist Him no more,|Lest He for- ev- er de-|part.|
w: He will re- deem thee and|cleanse from all sin,|He will be with thee to|guide.|
w: How canst thou treat the dear|Sav- ior so ill?|How canst thou turn Him a-|way?|
w: Let Him but en- ter and|thou shalt be blest;|Why wilt thou long- er de-|lay?|
"^Refrain" [EB]4 [Ec][^EG] | [FA]3- [FA]2 z | [FA]4 [DB][DF] | [EG]3- [EG]2 z | e4 [Ad][Ac] | %13
w: |||||
w: Knock- ing to-|day, *|knock- ing to-|day; *|Je- sus is|
w: |||||
w: |||||
 B4 [EG]E | [DF][EG][FA] [EG][EG][DF] | E6 |] %16
w: |||
w: knock- ing, Is|knock- ing for en- trance to-|day.|
w: |||
w: |||
V:2
 x5 E | x6 | x6 | x6 | x5 E | x6 | x6 | x6 || x6 | x6 | x6 | x6 | (BBB A) x2 | (GGG G)E x | x6 | %15
 E6 |] %16
V:3
 [E,B,][E,B,][E,B,] [E,B,][E,B,][E,G,] | [B,,F,][B,,G,][B,,A,] [E,G,]3 | [E,G,][C,G,][C,C] [F,C]3 | %3
w: |||
 [F,B,][B,,B,][B,,B,] [E,B,]3 | [E,B,][E,B,][E,B,] [E,B,][E,A,][E,G,] | %5
w: ||
 [B,,F,][B,,G,][B,,A,] [E,G,]3 | [C,G,][C,G,][C,C] [F,B,][F,B,][F,^A,] | [B,,B,]6 || %8
w: |||
 [E,G,]2 [E,G,] [E,G,]G,[C,C] | [F,C]2 [F,C] [F,C]2 z | [F,B,]2 [F,B,] [F,B,][B,,B,][B,,B,] | %11
w: Knock- ing, knock- ing to-|day, to- day,|Knock- ing, knock- ing to-|
 [E,B,]2 [E,B,] [E,B,]2 z | [G,=D][G,D][G,D] [A,C][A,D][A,E] | [E,E][E,E][E,E] (EB,)[E,G,] | %14
w: day, to- day,|Je- sus is ear- nest- ly|knock- ing to- day, * *|
 [B,,B,][B,,B,][B,,B,] [B,,B,][B,,B,][B,,A,] | [E,G,]6 |] %16
w: ||
V:4
 x6 | x6 | x6 | x6 | x6 | x6 | x6 | x6 || x6 | x6 | x6 | x6 | x6 | x3 E,2 x | x6 | x6 |] %16

